X: 538
T: The Daisy Field
S: &quot;ONeill's Dance Music of Ireland: 1001 Gems&quot;, 1907, #538
M: 4/4
L: 1/8
R: Reel
K: D Major
AG |
FGAF DEFD | E>A, (3A,G,A, E>A, (3A,G,A, | FGAF DEFA | (3fga ec d2 :|
|: ag |
fddc dcdf | edcd efge |[1 fddc dfaf | ec (3ABc d2 ag :|
[2 fdef gbag | (3fga ec dB |]
N: m_gavin's transcription
AG | 
FD (3DDD FDAF | EA, (3A,A,A, EA,(3A,A,A, | FD (3DDD FDFA | (3Bcd ec d2 :|| 
(3ABc | 
d2 eg fd (3ddd | ec (3ccc dcBA |[1 d2 eg fd (3ddd | ec (3ccc d2 :|
[2 ~a2 af gfeg | (3fgf ec dB |]
